polaris-icons/icons/new-icons/MetaobjectReferenceMinor.svg

<svg width="20" height="20" viewBox="0 0 20 20" fill="none" xmlns="http://www.w3.org/2000/svg">
<path d="M5.75 4C4.23122 4 3 5.23122 3 6.75V8.68934L2.21967 9.46967C1.92678 9.76256 1.92678 10.2374 2.21967 10.5303L3 11.3107V13.25C3 14.7688 4.23122 16 5.75 16H6C6.41421 16 6.75 15.6642 6.75 15.25C6.75 14.8358 6.41421 14.5 6 14.5H5.75C5.05964 14.5 4.5 13.9404 4.5 13.25V11C4.5 10.8011 4.42098 10.6103 4.28033 10.4697L3.81066 10L4.28033 9.53033C4.42098 9.38968 4.5 9.19891 4.5 9V6.75C4.5 6.05964 5.05964 5.5 5.75 5.5H6C6.41421 5.5 6.75 5.16421 6.75 4.75C6.75 4.33579 6.41421 4 6 4H5.75Z" fill="#4A4A4A"/>
<path d="M16.7197 10.5303C17.0126 10.8232 17.4874 10.8232 17.7803 10.5303C18.0732 10.2374 18.0732 9.76256 17.7803 9.46967L17 8.68934V6.75C17 5.23122 15.7688 4 14.25 4H14C13.5858 4 13.25 4.33579 13.25 4.75C13.25 5.16421 13.5858 5.5 14 5.5H14.25C14.9404 5.5 15.5 6.05964 15.5 6.75V9C15.5 9.19891 15.579 9.38968 15.7197 9.53033L16.7197 10.5303Z" fill="#4A4A4A"/>
<path fill-rule="evenodd" clip-rule="evenodd" d="M9.21417 6.0555C9.70859 5.80702 10.2914 5.80702 10.7858 6.0555L13.0358 7.18627C13.6269 7.48334 14 8.08835 14 8.74991V11.25C14 11.9116 13.6269 12.5166 13.0358 12.8136L10.7858 13.9444C10.2914 14.1929 9.70859 14.1929 9.21417 13.9444L6.96417 12.8136C6.37306 12.5166 6 11.9116 6 11.25V8.74991C6 8.08835 6.37306 7.48334 6.96417 7.18627L9.21417 6.0555ZM10.1123 7.39576C10.0416 7.36027 9.95837 7.36027 9.88774 7.39576L7.63774 8.52653C7.55329 8.56897 7.5 8.6554 7.5 8.74991V11.25C7.5 11.3445 7.55329 11.4309 7.63774 11.4734L9.88774 12.6042C9.95837 12.6396 10.0416 12.6396 10.1123 12.6042L12.3623 11.4734C12.4467 11.4309 12.5 11.3445 12.5 11.25V8.74991C12.5 8.6554 12.4467 8.56897 12.3623 8.52653L10.1123 7.39576Z" fill="#4A4A4A"/>
<path d="M18.8854 15.8249C19.1783 16.1177 19.1783 16.5926 18.8854 16.8855C18.5925 17.1784 18.1177 17.1784 17.8248 16.8855L15.7615 14.8222L15.789 15.953C15.7991 16.3671 15.4716 16.711 15.0575 16.7211C14.6434 16.7312 14.2995 16.4037 14.2894 15.9896L14.2162 12.9844C14.2112 12.7792 14.2905 12.5809 14.4357 12.4358C14.5808 12.2906 14.7791 12.2113 14.9843 12.2163L17.9895 12.2895C18.4036 12.2996 18.7311 12.6435 18.721 13.0576C18.7109 13.4717 18.367 13.7992 17.9529 13.7891L16.8221 13.7615L18.8854 15.8249Z" fill="#4A4A4A"/>
</svg>

<svg viewBox="0 0 20 20" xmlns="http://www.w3.org/2000/svg"><path d="M5.75 4a2.75 2.75 0 0 0-2.75 2.75v1.94l-.78.78a.75.75 0 0 0 0 1.06l.78.78v1.94a2.75 2.75 0 0 0 2.75 2.75h.25a.75.75 0 0 0 0-1.5h-.25c-.69 0-1.25-.56-1.25-1.25v-2.25a.75.75 0 0 0-.22-.53l-.47-.47.47-.47a.75.75 0 0 0 .22-.53v-2.25c0-.69.56-1.25 1.25-1.25h.25a.75.75 0 0 0 0-1.5h-.25Z" fill="#5C5F62"/><path d="M16.72 10.53a.75.75 0 1 0 1.06-1.06l-.78-.78v-1.94a2.75 2.75 0 0 0-2.75-2.75h-.25a.75.75 0 0 0 0 1.5h.25c.69 0 1.25.56 1.25 1.25v2.25c0 .199.079.39.22.53l1 1Z" fill="#5C5F62"/><path fill-rule="evenodd" d="M9.214 6.056a1.75 1.75 0 0 1 1.572 0l2.25 1.13c.59.297.964.902.964 1.564v2.5a1.75 1.75 0 0 1-.964 1.564l-2.25 1.13a1.75 1.75 0 0 1-1.572 0l-2.25-1.13a1.75 1.75 0 0 1-.964-1.564v-2.5c0-.662.373-1.267.964-1.564l2.25-1.13Zm.898 1.34a.25.25 0 0 0-.224 0l-2.25 1.13a.25.25 0 0 0-.138.224v2.5c0 .095.053.18.138.223l2.25 1.131a.25.25 0 0 0 .224 0l2.25-1.13a.25.25 0 0 0 .138-.224v-2.5a.25.25 0 0 0-.138-.223l-2.25-1.131Z" fill="#5C5F62"/><path d="M18.885 15.825a.75.75 0 1 1-1.06 1.06l-2.063-2.063.027 1.131a.75.75 0 0 1-1.5.037l-.073-3.006a.75.75 0 0 1 .768-.768l3.005.074a.75.75 0 0 1-.036 1.5l-1.13-.028 2.062 2.063Z" fill="#5C5F62"/></svg>
